!!!COM: Corelli, Arcangelo
!!!OTL: Sonate a tre [in g]
!!!XEN: Trio Sonata Opus 1, No. 10
!!!OPS: Opus 1
!!!ONM: No. 10
!!!OMV: Movement 2.
!!!YEC: Copyright 1994, Center for Computer Assisted Research in the Humanities
!!!YEM: Rights to all derivative electronic formats reserved.
!!!YEM: Refer to licensing agreement for further details.
!! For the following instrumentation: Violino I & II, Violone/Archlute,
!!    and Organo.
!! Allegro.
**kern	**kern	**kern	**kern
*ICklav	*ICstr	*ICstr	*ICstr
*Iorgan	*Icello	*Ivioln	*Ivioln
*	*Iarchl	*	*
!Organo	!Violone	!Violin 2	!Violin 1
!	! or	!	!
!	!Archlute	!	!
*clefF4	*clefF4	*clefG2	*clefG2
*k[b-]	*k[b-]	*k[b-]	*k[b-]
*g:	*g:	*g:	*g:
*M4/4	*M4/4	*M4/4	*M4/4
*MM72	*MM72	*MM72	*MM72
=1-	=1-	=1-	=1-
4GG/	1r	1r	4.g/
2G\	.	.	.
.	.	.	8b-\
.	.	.	8a\L
.	.	.	(16b-\L
.	.	.	16cc\JJ)
4F\	.	.	8dd\L
.	.	.	8dd\J
=2	=2	=2	=2
4E-\	1r	1r	8g/
.	.	.	4gg\
8GG/L	.	.	.
8AA/J	.	.	16ff\LL
.	.	.	16ee-\JJ
4BB-/	.	.	8dd\
.	.	.	4ff\
4BBn/	.	.	.
.	.	.	16ee-\LL
.	.	.	16dd\JJ
=3	=3	=3	=3
4C/	1r	1r	8cc\
.	.	.	4ee-\
4FF#/	.	.	.
.	.	.	16dd\LL
.	.	.	16cc\JJ
8GG/L	.	.	16b-\LL
.	.	.	16dd\
8C/J	.	.	16cc\
.	.	.	16b-\JJ
4D\	.	.	4a/
=4	=4	=4	=4
4GG/	1r	2r	8g\L
.	.	.	16gg\L
.	.	.	16aa\JJ
4G\	.	.	8bb-\L
.	.	.	(16aa\LL
.	.	.	16gg\JJ)
4.F\	.	4.dd\	8aa\L
.	.	.	8a\J
.	.	.	[4dd\
8D\	.	8ff\	.
=5	=5	=5	=5
4.A\	1r	8ee\L	4dd\]
.	.	(16ff\L	.
.	.	16gg\JJ)	.
.	.	8aa\L	4cc#\
8A\	.	8aa\J	.
8B-\L	.	8dd\	8dd\
8G\	.	4ddd\	4bb-\
8B-\	.	.	.
8c\J	.	16ccc\LL	16aa\LL
.	.	16bb-\JJ	16gg\JJ
=6	=6	=6	=6
8d\L	2r	8aa\	8ff#\
8A\	.	4ccc\	4aa\
8F#\	.	.	.
8D\J	.	16bb-\LL	16gg\LL
.	.	16aa\JJ	16ff#\JJ
4.GG/	4.GG/	8bb-\L	8gg\L
.	.	8dd\	(16b-\L
.	.	.	16cc\JJ)
.	.	8gg\	8dd\L
8BB-/	8BB-/	8gg\J	8dd\J
=7	=7	=7	=7
4AA/	8AA/L	4gg\	8cc\L
.	(16BB-/L	.	(16dd\L
.	16C/JJ)	.	16ee-\JJ)
4D\	8D\L	4ff#\	8.dd\L
.	8D\J	.	.
.	.	.	16cc\Jk
8GG/	8GG/	8gg\	8b-\L
4G\	4G\	4bb-\	8g\
.	.	.	8b-\
16F\LL	16F\LL	16aa\LL	8cc\J
16E\JJ	16E\JJ	16gg\JJ	.
=8	=8	=8	=8
8D\	8D\	8ff\	8dd/L
4F\	4F\	4aa\	8d/
.	.	.	8a/
16E-\LL	16E-\LL	16gg\LL	8b-/J
16D\JJ	16D\JJ	16ff\JJ	.
8C/L	8C/L	(16ee\LL	16cc\L
.	.	16ff#\J)	16dd\
8GG/	8GG/	8gg\J	16b-\
.	.	.	16cc\JJ
8D/	8D/	8.gg\L	8.a/L
8DD/J	8DD/J	.	.
.	.	16ff#\Jk	16a/Jk
=9	=9	=9	=9
8GG/L	8GG/L	8gg\L	8g/
8G/J	8G/J	8b-\J	4ee-\
4F\	4F\	4a/	.
.	.	.	[8dd\
4.E-\	4.E-\	4g/	8dd\]
.	.	.	4cc\
.	.	8a/L	.
8E-\	8E-\	8g/J	16b-\LL
.	.	.	16cc\JJ
=10	=10	=10	=10
4.D\	4.D\	8f#/L	4dd\
.	.	8a/J	.
.	.	2dd\	8d/L
8D\	8D\	.	8f/J
4.A\	4.A\	.	8e/L
.	.	.	(16f/L
.	.	.	16g/JJ)
.	.	4cc#\	8a/L
8A\	8A\	.	8a/J
=11	=11	=11	=11
8B-\L	8B-\L	4dd\	8d/
8BB-\	8BB-\	.	4dd\
8D\	8D\	4r	.
8E\J	8E\J	.	16cc\LL
.	.	.	16b-\JJ
4F\	4F\	2r	8a/
.	.	.	4cc\
4F#\	4F#\	.	.
.	.	.	16b-/LL
.	.	.	16a/JJ
=12	=12	=12	=12
4.G\	4.G\	4.g/	8b-\L
.	.	.	8dd\J
.	.	.	[4gg\
8G\	8G\	8b-\	.
4.d\	4.d\	8a\L	4.gg\]
.	.	(16b-\L	.
.	.	16cc\JJ)	.
.	.	8dd\L	.
8c\	8c\	8dd\J	8ff#\
=13	=13	=13	=13
8B-\L	8B-\L	8g/	8gg\
8G\	8G\	4gg\	4bb-\
8B-\	8B-\	.	.
8c\J	8c\J	16ff\LL	16aa\LL
.	.	16ee\JJ	16gg\JJ
8d\L	8d\L	8dd\	8ff\
8D\	8D\	4ff\	4aa\
8F\	8F\	.	.
8G\J	8G\J	16ee\LL	16gg\LL
.	.	16dd\JJ	16ff\JJ
=14	=14	=14	=14
8A\L	8A\L	8cc#\L	8ee\L
8G\	8G\	8dd\J	8ff\J
8A\	8A\	8.dd\L	8.ee\L
8AA\J	8AA\J	.	.
.	.	16cc#\Jk	16ee\Jk
4.D\	4.D\	4.dd\	8ff\L
.	.	.	8a\J
.	.	.	[4dd\
8F\	8F\	8aa\	.
=15	=15	=15	=15
4E\	8E\L	4.gg\	8dd\L]
.	(16F\L	.	16cc\L
.	16G\JJ)	.	16b\JJ
4A\	8A\L	.	[4cc\
.	8A\J	(16ff#\LL	.
.	.	16ee\JJ)	.
4D\	8D\L	4ff#\	8cc\L]
.	16E\L	.	(16b-\L
.	16F#\JJ	.	16a\JJ)
8G\L	8G\L	8dd\L	8b-\L
8BB-\J	8BB-\J	8gg\J	(16cc\L
.	.	.	16b-\JJ)
=16	=16	=16	=16
8C/L	8C/L	4.gg\	16a\LL
.	.	.	16dd\
8GG/	8GG/	.	16cc\
.	.	.	16b-\JJ
8D/	8D/	.	4a/
8DD/J	8DD/J	8ff#\	.
4.GG/	4.GG/	4.gg\	4g/
.	.	.	[4dd\
8F\	8F\	8a/	.
=17	=17	=17	=17
4.E-\	4.E-\	4.g/	4.dd\]
8E-\	8E-\	8g/	8cc\
4D\	4D\	4f#/	4dd\
4r	4r	4r	4r
==	==	==	==
*-	*-	*-	*-
!!!CDT: 1653/2/17/-1713/1/8
!!!OCY: Italia
!!!ODE: Queen Christina Alexandra of Sweden
!!!ODT: 1681//
!!!OPC: Roma; Rome
!!!AGN: trio sonata
!!!AST: baroque, chamber
!!!AMT: simple quadruple
!!!YOR1: J. Joachim & F. Chrysander (eds.) Les Oeuvre de Arcangelo Corelli
!!!YOR2: London: Augener & Co. 1871
!!!YOY: 1871
!!!AIN: archl cello organ violn
!!!EEV: 1.1
!!!RDT: 1993 September 16
!!!YER: 1994 December 14
!!!EMD: 1996 July 9
!!!YEN: United States of America
!!!EFL: 2/5
!!!ENC: Frances Bennion & Steven Rasmussen
!!!EED: W.B. Hewlett
!!!VTS: 4217970411
